svgs/thin/cloud-hail-mixed.svg

<svg xmlns="http://www.w3.org/2000/svg" viewBox="0 0 512 512"><!--! Font Awesome Pro 6.0.0-alpha3 by @fontawesome - https://fontawesome.com License - https://fontawesome.com/license (Commercial License) --><path d="M177.2 371.8l-80 128c-2.344 3.734-1.203 8.672 2.547 11.02C101.1 511.6 102.5 512 104 512c2.656 0 5.266-1.328 6.781-3.766l80-128c2.344-3.734 1.203-8.672-2.547-11.02C184.5 366.9 179.6 368 177.2 371.8zM32 448c-17.75 0-32 14.25-32 32s14.25 32 32 32s32-14.25 32-32S49.75 448 32 448zM32 496c-8.973 0-16-7.029-16-16c0-8.973 7.027-16 16-16s16 7.027 16 16C48 488.1 40.97 496 32 496zM81.22 371.8l-25 40c-2.344 3.734-1.203 8.672 2.547 11.02C60.08 423.6 61.55 424 63 424c2.656 0 5.266-1.328 6.781-3.766l25-40c2.344-3.734 1.203-8.672-2.547-11.02C88.55 366.9 83.58 368 81.22 371.8zM369.2 371.8l-80 128c-2.344 3.734-1.203 8.672 2.547 11.02C293.1 511.6 294.5 512 296 512c2.656 0 5.266-1.328 6.781-3.766l80-128c2.344-3.734 1.203-8.672-2.547-11.02C376.6 366.9 371.6 368 369.2 371.8zM465.2 371.8l-24 38.41c-2.344 3.734-1.203 8.672 2.547 11.02C445.1 422 446.5 422.4 448 422.4c2.656 0 5.266-1.328 6.781-3.766l24-38.41c2.344-3.734 1.203-8.672-2.547-11.02C472.5 366.9 467.6 368 465.2 371.8zM224 448c-17.75 0-32 14.25-32 32s14.25 32 32 32s32-14.25 32-32S241.8 448 224 448zM224 496c-8.973 0-16-7.029-16-16c0-8.973 7.027-16 16-16s16 7.027 16 16C240 488.1 232.1 496 224 496zM416 448c-17.75 0-32 14.25-32 32s14.25 32 32 32s32-14.25 32-32S433.8 448 416 448zM416 496c-8.973 0-16-7.029-16-16c0-8.973 7.027-16 16-16s16 7.027 16 16C432 488.1 424.1 496 416 496zM273.2 371.8l-24 38.41c-2.344 3.734-1.203 8.672 2.547 11.02C253.1 422 254.5 422.4 256 422.4c2.656 0 5.266-1.328 6.781-3.766l24-38.41c2.344-3.734 1.203-8.672-2.547-11.02C280.5 366.9 275.6 368 273.2 371.8zM416 128c-.625 0-1.125 .25-1.625 .25C415.5 123 416 117.6 416 112C416 67.75 380.3 32 336 32c-24.62 0-46.25 11.25-61 28.75C256.4 24.75 219.3 0 176 0C114.1 0 64 50.13 64 112c0 7.25 .75 14.25 2.125 21.25C27.75 145.8 0 181.5 0 224c0 53 43 96 96 96h320c53 0 96-43 96-96S469 128 416 128zM416 304H96C51.89 304 16 268.1 16 224c0-34.45 22.13-64.81 55.08-75.54l13.48-4.391L81.82 130.2C80.6 123.9 80 117.1 80 112c0-52.94 43.06-96 96-96c35.67 0 68.16 19.96 84.79 52.1l11.01 21.28l15.44-18.32C299.8 56.19 317.1 48 336 48c35.29 0 64 28.71 64 64c0 4.691-.416 8.91-1.27 12.9l-4.148 19.35h19.79c1.104 0 2.068-.1035 2.902-.2402C460.8 144.7 496 180.3 496 224C496 268.1 460.1 304 416 304z"/></svg>

<svg xmlns="http://www.w3.org/2000/svg" viewBox="0 0 512 512"><!-- Font Awesome Pro 6.0.0-alpha2 by @fontawesome - https://fontawesome.com License - https://fontawesome.com/license (Commercial License) --><path d="M177.219 371.766L97.219 499.766C94.875 503.5 96.016 508.438 99.766 510.781C101.078 511.609 102.547 512 104 512C106.656 512 109.266 510.672 110.781 508.234L190.781 380.234C193.125 376.5 191.984 371.562 188.234 369.219C184.531 366.906 179.562 368 177.219 371.766ZM32 448C14.25 448 0 462.25 0 480S14.25 512 32 512S64 497.75 64 480S49.75 448 32 448ZM32 496C23.027 496 16 488.971 16 480C16 471.027 23.027 464 32 464S48 471.027 48 480C48 488.971 40.973 496 32 496ZM81.219 371.766L56.219 411.766C53.875 415.5 55.016 420.438 58.766 422.781C60.078 423.609 61.547 424 63 424C65.656 424 68.266 422.672 69.781 420.234L94.781 380.234C97.125 376.5 95.984 371.562 92.234 369.219C88.547 366.906 83.578 368 81.219 371.766ZM369.219 371.766L289.219 499.766C286.875 503.5 288.016 508.438 291.766 510.781C293.078 511.609 294.547 512 296 512C298.656 512 301.266 510.672 302.781 508.234L382.781 380.234C385.125 376.5 383.984 371.562 380.234 369.219C376.562 366.906 371.578 368 369.219 371.766ZM465.219 371.766L441.219 410.172C438.875 413.906 440.016 418.844 443.766 421.188C445.078 422.016 446.547 422.406 448 422.406C450.656 422.406 453.266 421.078 454.781 418.641L478.781 380.234C481.125 376.5 479.984 371.562 476.234 369.219C472.531 366.906 467.562 368 465.219 371.766ZM224 448C206.25 448 192 462.25 192 480S206.25 512 224 512S256 497.75 256 480S241.75 448 224 448ZM224 496C215.027 496 208 488.971 208 480C208 471.027 215.027 464 224 464S240 471.027 240 480C240 488.971 232.973 496 224 496ZM416 448C398.25 448 384 462.25 384 480S398.25 512 416 512S448 497.75 448 480S433.75 448 416 448ZM416 496C407.027 496 400 488.971 400 480C400 471.027 407.027 464 416 464S432 471.027 432 480C432 488.971 424.973 496 416 496ZM273.219 371.766L249.219 410.172C246.875 413.906 248.016 418.844 251.766 421.188C253.078 422.016 254.547 422.406 256 422.406C258.656 422.406 261.266 421.078 262.781 418.641L286.781 380.234C289.125 376.5 287.984 371.562 284.234 369.219C280.547 366.906 275.578 368 273.219 371.766ZM416 128C415.375 128 414.875 128.25 414.375 128.25C415.5 123 416 117.625 416 112C416 67.75 380.25 32 336 32C311.375 32 289.75 43.25 275 60.75C256.375 24.75 219.25 0 176 0C114.125 0 64 50.125 64 112C64 119.25 64.75 126.25 66.125 133.25C27.75 145.75 0 181.5 0 224C0 277 43 320 96 320H416C469 320 512 277 512 224S469 128 416 128ZM416 304H96C51.889 304 16 268.111 16 224C16 189.551 38.135 159.193 71.08 148.463L84.557 144.072L81.824 130.166C80.598 123.914 80 117.971 80 112C80 59.064 123.064 16 176 16C211.674 16 244.162 35.965 260.789 68.102L271.797 89.377L287.234 71.061C299.77 56.189 317.088 48 336 48C371.289 48 400 76.709 400 112C400 116.691 399.584 120.91 398.73 124.896L394.582 144.25H414.375C415.479 144.25 416.443 144.146 417.277 144.01C460.801 144.697 496 180.316 496 224C496 268.111 460.111 304 416 304Z"/></svg>
